X:1
T:I LOVE  MY TINY ATTIC
M:2/4
Q:1/4=120
K:Bb
F6F2|B2B2B2B2|A2F2F2F2|B2B2d2B2|A4c2A2|G2G2G2G2|
A2A2c2A2|G4G2G2|F7/2||
